static/images/content_images/sc_dom_img/geoscience.svg

<?xml version="1.0" encoding="UTF-8"?><!DOCTYPE svg PUBLIC "-//W3C//DTD SVG 1.1//EN" "http://www.w3.org/Graphics/SVG/1.1/DTD/svg11.dtd"><svg xmlns="http://www.w3.org/2000/svg" xmlns:xlink="http://www.w3.org/1999/xlink" version="1.1" width="24" height="24" viewBox="0 0 24 24"><path style="stroke:rgb(0,0,0)" d="M17.9,17.39C17.64,16.59 16.89,16 16,16H15V13A1,1 0 0,0 14,12H8V10H10A1,1 0 0,0 11,9V7H13A2,2 0 0,0 15,5V4.59C17.93,5.77 20,8.64 20,12C20,14.08 19.2,15.97 17.9,17.39M11,19.93C7.05,19.44 4,16.08 4,12C4,11.38 4.08,10.78 4.21,10.21L9,15V16A2,2 0 0,0 11,18M12,2A10,10 0 0,0 2,12A10,10 0 0,0 12,22A10,10 0 0,0 22,12A10,10 0 0,0 12,2Z" /></svg>

<?xml version="1.0" encoding="utf-8"?>
<!-- Generator: Adobe Illustrator 24.1.0, SVG Export Plug-In . SVG Version: 6.00 Build 0)  -->
<svg version="1.1" id="Layer_1" xmlns="http://www.w3.org/2000/svg" xmlns:xlink="http://www.w3.org/1999/xlink" x="0px" y="0px"
	 viewBox="0 0 24 24" style="enable-background:new 0 0 24 24;" xml:space="preserve">
<style type="text/css">
	.st0{fill:#013243;stroke:#013243;}
</style>
<path class="st0" d="M17.9,17.4c-0.3-0.8-1-1.4-1.9-1.4h-1v-3c0-0.6-0.4-1-1-1H8v-2h2c0.6,0,1-0.4,1-1V7h2c1.1,0,2-0.9,2-2V4.6
	c2.9,1.2,5,4.1,5,7.4C20,14.1,19.2,16,17.9,17.4 M11,19.9c-3.9-0.5-7-3.9-7-7.9c0-0.6,0.1-1.2,0.2-1.8L9,15v1c0,1.1,0.9,2,2,2 M12,2
	C6.5,2,2,6.5,2,12s4.5,10,10,10s10-4.5,10-10S17.5,2,12,2z"/>
</svg>
